X:5442
T:Ranteen Valeen Polkka
O:england
C:Paljetti: Minna Luoma
M:2/4
L:1/16
K:G
G2BB B2B2|G2Bd d=fed|c2AA =F2A2|=F2A2 AcBA|\
G2BB B2B2|G2Bd d=fed|c2AA =F2A2|A2G2 G4:|
|:g2g2 gfed|e2dd dBGB|d2c2 ccAc|e2d2 ddBd|\
g2g2 gfed|e2dd dBGB|d2c2 ~B2AB|A2G2 G4:|
|:D2G2 G2G2|B2A2 A2(3FAF|D2F2 A3c|e2d2 d3c|\
BcBA G2GA|B2cB A2AF|D2F2 AcBA|G2G2 G4:|
|:d2dB G2GB|d2c2 cBc2|cdcA F2FA|c2B2 BAB2|\
BcBA G2GA|B2cB A2AF|D2F2 AcBA|G2G2 G4:|


